X: 1
T: Aughacashel, The
M: 4/4
L: 1/8
R: reel
K: Gmaj
|: DEGA BG(3GGG | AGBG ABGE | DEGA Bded | gedB ABGE |
 DEGA BG(3GGG | AGBG ABGE | Bded Bdge |1 dBAc BGAG :|2 dBAB GABd ||
|: (3ggg dB G3B | e2dB G3B | (3AAA AB AE(3EEE | c2B2 ABcd |
 (3ggg ga (3bbg ef | gage d3B | cABG AGEG |1 DGGF GABd :|2 DGGF G4 ||
